X:1
T:Ad superas arces
T:Daniel Friderici
T:Source : Bicinia sacra---Rostock---J.Richelius---1642. Editor :  André Vierendeels (09/07/17).
T:Notes : Original clefs G2, G2 Editorial accidentals above the staff
T:Ad superas arces
T:©
T:©
T:©
C:Daniel Friderici
Z:©
%%score [ 1 2 ]
L:1/8
Q:1/4=120
M:2/2
K:C
V:1 treble nm="Soprano 1" snm="S 1"
V:2 treble nm="Soprano 2" snm="S 2"
V:1
 G6 g2- | gg d2 e4 | d6 G2- | G2 B2 c2 A2 | B2 A2 B2 c2 | d4 d4 | G4 G2 A2 | B2 G2 BABc | d4 d4 | %9
w: Ad su-|* pe- ras ar-|ces, tu|_ ve- ra es|Ja- * * *|* nu-|a, tu ve-|re es Ja- * * *|* nu-|
 G2 GA B2 G2 | BABc d2 d2 | G8 | g2 _f2 e2 d2 | c2 d2 e2 f2 | g2 f2 e2 d2 | g2 f2 e4 | d8 :: %17
w: a, tu ve- ra es|Ja- * * * * nu-|a,|Chri- * * *||||ste:|
 g6 d2 | e6 B2 | c6 G2 | ABcd e2 d2 | z8 | g6 d2 | e6 B2 | c6 G2 | ABcd e2 d2 | z4 z2 G2 | %27
w: Er- *|||* * * * * rat,||er- *|||* * * * * rat,|qui|
 B2 c2 d4 | z4 z2 d2 | e2 ^f2 g4 | z4 z2 G2 | B2 c2 d4 | z4 G2 A2 | B2 c2 d2 c2 | B2 A2 B2 c2 | %35
w: si- ne te,|qui|si- ne te,|qui|si- ne te|quae- *|||
 d2 e2 d2 c2 | d2 e2 f2 e2 | d2 e2 f2 g2 | f2 e2 f2 g2 | a2 g2 f2 e2 | f2 g2 f2 e2 | d2 c2 d2 e2 | %42
w: |||||||
 d2 c2 B2 A2 | G4 d3 d | e2 g4 ^f2 | g8 :| %46
w: |* rit ad|as- tra vi-|a.|
V:2
 z8 | z8 | G6 g2- | gg d2 e4 | d4 G2 A2 | B2 G2 BABc | d4 d4 | G8 | G2 A2 B2 G2 | BABc d2 d2 | %10
w: ||Ad su-|* pe- ras ar-|ces, tu ve-|ra es Ja- * * *|* nu-|a,|tu ve- ra es|Ja- * * * * nu-|
 G2 GA B2 G2 | BABc d2 d2 | G4 g2 f2 | e2 d2 c2 d2 | e2 f2 g2 f2 | e2 d3 ^c/B/ c2 | d8 :: z8 | %18
w: a, tu ve- ra es|Ja- * * * * nu-|a Chri- *||||ste:||
 g6 d2 | e6 B2 | c6 G2 | ABcd e2 d2 | z8 | g6 d2 | e6 B2 | c6 G2 | ABcd e2 d2 | z4 z2 G2 | %28
w: Er- *|||* * * * * rat,||er- *|||* * * * * rat|qui|
 B2 c2 d4 | z4 z2 G2 | B2 c2 d4 | z4 z2 d2 |"^#" e2 f2 g4 | G2 A2 B2 c2 | d2 c2 B2 A2 | %35
w: si- ne te,|qui|si- ne te,|qui|si- ne te|quae- * * *||
 B2 c2 d2 e2 | d2 c2 d2 e2 | f2 e2 d2 e2 | f2 g2 f2 e2 | f2 g2 a2 g2 | f2 e2 f2 g2 | f2 e2 d2 c2 | %42
w: |||||||
 d2 e2 d2 c2 | B2 A2 G2 Gd | c2 B2 A4 | G8 :| %46
w: |* * * rit ad|a- stra vi-|am.|

